dist/svg/object-error-o.svg

<!-- Generated by Trend Micro Style Portal -->
<svg version="1.1" xmlns="http://www.w3.org/2000/svg" width="16" height="16" viewBox="0 0 16 16">
  <title>object-error-o</title>
  <path fill="rgb(34,34,34)" d="M3 15h3v1h-3c-0.552 0-1-0.448-1-1v0-14c0-0.552 0.448-1 1-1v0h10c0.552 0 1 0.448 1 1v0 4h-1v-4h-10zM12 5v-3h-8v12h1v-11h6v2zM16 11c-0.019 2.747-2.251 4.966-5 4.966-1.827 0-3.425-0.98-4.297-2.443l-0.013-0.023c-0.086-0.137-0.176-0.301-0.257-0.47l-0.013-0.030c-0.069-0.164-0.137-0.367-0.192-0.575l-0.008-0.035c0-0.13-0.090-0.26-0.12-0.39s0-0.060 0-0.1c-0.036-0.138-0.071-0.314-0.097-0.493l-0.003-0.027c0-0.13 0-0.25 0-0.38 0-0.001 0-0.003 0-0.005 0-0.352 0.036-0.696 0.106-1.027l-0.006 0.033c0.481-2.299 2.492-4 4.899-4 0 0 0.001 0 0.001 0h-0c0.001 0 0.003 0 0.005 0 0.352 0 0.696 0.036 1.027 0.106l-0.033-0.006c2.285 0.506 3.973 2.502 4 4.897l0 0.003zM12 11v0l2-2-1-1-2 2-2-2-1 1 2 2-2 2 1 1 2-2 2 2 1-1-2-2z"></path>
</svg>

<svg width="16" height="16" viewBox="0 0 16 16" fill="rgb(34, 34, 34)" xmlns="http://www.w3.org/2000/svg"><title>object-error-o</title><path d="M3 15H6V16H3C2.448 16 2 15.552 2 15V1C2 0.448 2.448 0 3 0H13C13.552 0 14 0.448 14 1V5H13V1H3V15ZM12 5V2H4V14H5V3H11V5H12ZM16 11C15.981 13.747 13.749 15.966 11 15.966C9.173 15.966 7.575 14.986 6.703 13.523L6.69 13.5C6.604 13.363 6.514 13.199 6.433 13.03L6.42 13C6.351 12.836 6.283 12.633 6.228 12.425L6.22 12.39C6.22 12.26 6.13 12.13 6.1 12C6.07 11.87 6.1 11.94 6.1 11.9C6.064 11.762 6.029 11.586 6.003 11.407L6 11.38C6 11.25 6 11.13 6 11C6 11 6 10.997 6 10.995C6 10.643 6.036 10.299 6.106 9.968L6.1 10.001C6.581 7.702 8.592 6.001 10.999 6.001H11C11 6.001 11.003 6.001 11.005 6.001C11.357 6.001 11.701 6.037 12.032 6.107L11.999 6.101C14.284 6.607 15.972 8.603 15.999 10.998V11.001L16 11ZM12 11L14 9L13 8L11 10L9 8L8 9L10 11L8 13L9 14L11 12L13 14L14 13L12 11Z" fill="rgb(34, 34, 34)" fill-opacity="1.00"/></svg>
